X:1     %Music
T:Fill the Cup
B:Singing Together, Autumn 1960, BBC Publications
F:http://www.folkinfo.org/songs
M:2/4     %Meter
L:1/16     %
K:F
C2 |C2D2 F2G2 |A4 G2F2 |B2G2 G2A2 | B2G2 G2A2 |
w:Oh, put the ket-tle there on the hob m' dar-lint,  hob m' dar-lint. 
C2D2 F2G2 |A4 G2F2 |A2F2 F2G2 |  A2 F2 F2 
w:Put the ket-tle there on the hob m' dar-lint, That's the way. 
B2 |d2c2 d2f2 |c4 G2F2 | B2G2 G2A2 |B2G2 G2c2 |
w:We drink a cup of tea in the ear-ly morn-ing, ear-ly morn-ing,
d2c2 d2f2 |c4 B2G2 | A2F2 F2G2 |A2G2 F2 |]
w: Drink a cup of tea in the ear-ly morn-ing, Ever-y day. 